X: 760
T: Shiquan renxen
%%abc-version 2.0
%%abcx-abcm2ps-target-version 5.9.1 (29 Sep 2008)
%%abc-creator hum2abc beta
%%abcx-conversion-date 2013/10/02 07:52:30
%%abc-edited-by Helmut Schaffrath
%%humdrum-veritas 589570179
%%humdrum-veritas-data 2490502310
%%continueall 1
%%barnumbers 0
L: 1/16
M: 4/4
K: G
A2 d2 d2 d e2< B2 AG4 [I:setbarnb 1]| 
A2 A B A2 E2D8 | 
A2 A B A2 A2 G2 F E D E D2 | 
A2 A2 E D E GD8 | 
A2 D2G4A2 d2 g B2 d | 
A2 A B A2 d4<G4F E | 
A2 A B A B A2 G2 F E E G D2 | 
A B A2 E D E2D8 | 
A2 A B A2 d4<G4F E | 
A A2 B A B A2 G F2 E E G D2 | 
A2 A B E D E2D8 |]  



